F[ERK5
CUT[Het waren twe konigs kinderen]
REG[Europa, Mitteleuropa, Deutschland]
KEY[L0085  08  G 3/4]
MEL[-5_  1_3_4_  5__6_  543_
    5_  5_4_3_  2_3_4_  3__
    -5_  1_3_4_  5__6_  543_
    5_  5_4_3_  2_3_4_  3__.
    2__.  5_4_3_  2_3_2_  1_-5_
    1_  1_2_3_  4_3_2_  3__0_
    2__.  5_4_3_  2_3_2_  1_-5_
    1_  1_2_3_  4_3_2_  1__ //] >>
FCT[Lied]
CMT[Coussemaker Nr. 49]
